static/logos/radar-wordmark-color.svg

<svg width="100" height="24" viewBox="0 0 100 24" fill="none" xmlns="http://www.w3.org/2000/svg">
<g clip-path="url(#clip0_1_1426)">
<path d="M28.7392 20.9275V2.85876H35.808C40.529 2.85876 43.1543 4.77937 43.1543 8.59526V8.69634C43.1543 11.274 41.7912 12.7144 39.8978 13.4473L44.2149 20.9275H38.7615L35.1012 14.4581H33.8893V20.9275H28.7389H28.7392ZM33.8893 11.0971H35.5557C37.2976 11.0971 38.1557 10.3642 38.1557 8.89851V8.79744C38.1557 7.33171 37.2472 6.7505 35.5808 6.7505H33.8893V11.0971ZM49.5163 21.2307C47.1433 21.2307 45.048 20.0682 45.048 17.2632C45.048 14.1548 47.6733 12.9418 52.0662 12.9418H53.3284V12.6386C53.3284 11.3751 53.0254 10.5411 51.5866 10.5411C50.3494 10.5411 49.8951 11.274 49.7943 12.1079H45.5527C45.7549 8.92377 48.254 7.357 51.8642 7.357C55.4995 7.357 57.8221 8.84796 57.8221 12.3606V20.9275H53.4295V19.3859C52.7981 20.3462 51.6372 21.2307 49.5163 21.2307ZM51.0816 18.1729C52.3692 18.1729 53.3284 17.4401 53.3284 16.3029V15.4942H52.1419C50.3243 15.4942 49.5163 15.848 49.5163 16.9347C49.5163 17.6928 50.0213 18.1729 51.0816 18.1729ZM65.2948 21.2307C62.2403 21.2307 59.7408 19.0321 59.7408 14.4581V14.256C59.7408 9.75771 62.2149 7.357 65.3452 7.357C67.4155 7.357 68.6524 8.24146 69.4097 9.58083V1.89848H73.9287V20.9275H69.4097V18.7794C68.7535 20.144 67.2893 21.2307 65.2948 21.2307ZM66.8852 17.7686C68.5262 17.7686 69.5361 16.6314 69.5361 14.3823V14.1801C69.5361 11.9563 68.602 10.7686 66.9359 10.7686C65.2444 10.7686 64.3356 11.9058 64.3356 14.2054V14.4076C64.3356 16.6314 65.3202 17.7686 66.8852 17.7686ZM80.316 21.2307C77.9428 21.2307 75.8474 20.0682 75.8474 17.2632C75.8474 14.1548 78.4731 12.9418 82.8659 12.9418H84.1282V12.6386C84.1282 11.3751 83.8251 10.5411 82.3863 10.5411C81.1491 10.5411 80.6945 11.274 80.5937 12.1079H76.3524C76.5543 8.92377 79.0538 7.357 82.664 7.357C86.2992 7.357 88.6218 8.84796 88.6218 12.3606V20.9275H84.229V19.3859C83.5979 20.3462 82.4367 21.2307 80.316 21.2307ZM81.881 18.1729C83.1686 18.1729 84.1282 17.4401 84.1282 16.3029V15.4942H82.9417C81.1237 15.4942 80.316 15.848 80.316 16.9347C80.316 17.6928 80.8207 18.1729 81.881 18.1729ZM91.1967 20.9275V7.71077H95.7158V10.339C96.5488 8.36782 97.9372 7.50862 99.9821 7.53388V11.7541C97.2306 11.6783 95.7158 12.5375 95.7158 14.6603V20.9275H91.1967ZM9.78937 0L19.4537 23.685L9.78937 19.6897L0.125 23.6606L9.78937 0Z" fill="#007AFF"/>
</g>
<defs>
<clipPath id="clip0_1_1426">
<rect width="100" height="23.6915" fill="white"/>
</clipPath>
</defs>
</svg>

<svg xmlns="http://www.w3.org/2000/svg" width="266.667" height="64" fill="none" viewBox="0 0 100 24"><g clip-path="url(#a)"><path fill="#007AFF" d="M28.74 20.927V2.86h7.068c4.721 0 7.346 1.92 7.346 5.736v.101c0 2.578-1.363 4.018-3.256 4.751l4.317 7.48H38.76l-3.66-6.469H33.89v6.47h-5.15Zm5.15-9.83h1.666c1.742 0 2.6-.733 2.6-2.198v-.102c0-1.465-.909-2.047-2.575-2.047h-1.692v4.347Zm15.626 10.134c-2.373 0-4.468-1.163-4.468-3.968 0-3.108 2.625-4.321 7.018-4.321h1.262v-.303c0-1.264-.303-2.098-1.741-2.098-1.238 0-1.692.733-1.793 1.567h-4.241c.202-3.184 2.701-4.751 6.311-4.751 3.636 0 5.958 1.491 5.958 5.004v8.566H53.43v-1.541c-.63.96-1.792 1.845-3.913 1.845Zm1.566-3.058c1.287 0 2.246-.733 2.246-1.87v-.809h-1.186c-1.818 0-2.626.354-2.626 1.44 0 .759.505 1.239 1.566 1.239Zm14.213 3.058c-3.055 0-5.554-2.199-5.554-6.773v-.202c0-4.498 2.474-6.899 5.604-6.899 2.07 0 3.307.884 4.065 2.224V1.898h4.519v19.03h-4.52v-2.149c-.656 1.365-2.12 2.452-4.114 2.452Zm1.59-3.462c1.641 0 2.651-1.138 2.651-3.387v-.202c0-2.224-.934-3.411-2.6-3.411-1.692 0-2.6 1.137-2.6 3.436v.203c0 2.223.984 3.36 2.55 3.36Zm13.431 3.462c-2.373 0-4.469-1.163-4.469-3.968 0-3.108 2.626-4.321 7.019-4.321h1.262v-.303c0-1.264-.303-2.098-1.742-2.098-1.237 0-1.691.733-1.792 1.567h-4.242c.202-3.184 2.702-4.751 6.312-4.751 3.635 0 5.958 1.491 5.958 5.004v8.566h-4.393v-1.541c-.631.96-1.792 1.845-3.913 1.845Zm1.565-3.058c1.288 0 2.247-.733 2.247-1.87v-.809h-1.186c-1.818 0-2.626.354-2.626 1.44 0 .759.505 1.239 1.565 1.239Zm9.316 2.755V7.71h4.519v2.628c.833-1.971 2.221-2.83 4.266-2.805v4.22c-2.751-.076-4.266.784-4.266 2.906v6.267h-4.52ZM9.789 0l9.665 23.685-9.665-3.995-9.664 3.97L9.789 0Z"/></g><defs><clipPath id="a"><path fill="#fff" d="M0 0h100v23.692H0z"/></clipPath></defs></svg>
